docs/img/get.svg

<svg width="24" height="24" viewBox="0 0 24 24" fill="none" xmlns="http://www.w3.org/2000/svg">
<path fill-rule="evenodd" clip-rule="evenodd" d="M4 3C3.44772 3 3 3.44772 3 4V20C3 20.5523 3.44772 21 4 21H20C20.5523 21 21 20.5523 21 20V4C21 3.44772 20.5523 3 20 3H4ZM16 13L16 9.39072L11.4954 13.8953L10.0812 12.4811L14.5623 8H10.9999V6H16H16.9999H17C17.5522 6 18 6.44772 18 7V13H16Z" fill="black"/>
</svg>

<svg width="24" height="24" fill="none" xmlns="http://www.w3.org/2000/svg"><path fill-rule="evenodd" clip-rule="evenodd" d="M4 3a1 1 0 00-1 1v16a1 1 0 001 1h16a1 1 0 001-1V4a1 1 0 00-1-1H4zm12 10V9.39l-4.505 4.505-1.414-1.414L14.562 8H11V6h6a1 1 0 011 1v6h-2z" fill="#000"/></svg>
